src/assets/outline/VideoHorizontal.svg

<svg width="24" height="24" viewBox="0 0 24 24"  xmlns="http://www.w3.org/2000/svg">
<path d="M15 22.75H9C3.57 22.75 1.25 20.43 1.25 15V9C1.25 3.57 3.57 1.25 9 1.25H15C20.43 1.25 22.75 3.57 22.75 9V15C22.75 20.43 20.43 22.75 15 22.75ZM9 2.75C4.39 2.75 2.75 4.39 2.75 9V15C2.75 19.61 4.39 21.25 9 21.25H15C19.61 21.25 21.25 19.61 21.25 15V9C21.25 4.39 19.61 2.75 15 2.75H9Z" />
<path d="M21.48 17.8601H2.52002C2.11002 17.8601 1.77002 17.5201 1.77002 17.1101C1.77002 16.7001 2.11002 16.3601 2.52002 16.3601H21.48C21.89 16.3601 22.23 16.7001 22.23 17.1101C22.23 17.5201 21.9 17.8601 21.48 17.8601Z" />
<path d="M21.48 7.86011H2.52002C2.11002 7.86011 1.77002 7.52011 1.77002 7.11011C1.77002 6.70011 2.10002 6.36011 2.52002 6.36011H21.48C21.89 6.36011 22.23 6.70011 22.23 7.11011C22.23 7.52011 21.9 7.86011 21.48 7.86011Z" />
<path d="M6.97021 22.2101C6.56021 22.2101 6.22021 21.8701 6.22021 21.4601V17.1101C6.22021 16.7001 6.56021 16.3601 6.97021 16.3601C7.38021 16.3601 7.72021 16.7001 7.72021 17.1101V21.4601C7.72021 21.8801 7.38021 22.2101 6.97021 22.2101Z" />
<path d="M12 22.7201C11.59 22.7201 11.25 22.3801 11.25 21.9701V17.1101C11.25 16.7001 11.59 16.3601 12 16.3601C12.41 16.3601 12.75 16.7001 12.75 17.1101V21.9701C12.75 22.3801 12.41 22.7201 12 22.7201Z" />
<path d="M16.9702 22.2701C16.5602 22.2701 16.2202 21.9301 16.2202 21.5201V17.1101C16.2202 16.7001 16.5602 16.3601 16.9702 16.3601C17.3802 16.3601 17.7202 16.7001 17.7202 17.1101V21.5201C17.7202 21.9401 17.3802 22.2701 16.9702 22.2701Z" />
<path d="M6.97021 7.21011C6.56021 7.21011 6.22021 6.87011 6.22021 6.46011V2.11011C6.22021 1.70011 6.56021 1.36011 6.97021 1.36011C7.38021 1.36011 7.72021 1.70011 7.72021 2.11011V6.46011C7.72021 6.88011 7.38021 7.21011 6.97021 7.21011Z" />
<path d="M12 7.72011C11.59 7.72011 11.25 7.38011 11.25 6.97011V2.11011C11.25 1.70011 11.59 1.36011 12 1.36011C12.41 1.36011 12.75 1.70011 12.75 2.11011V6.97011C12.75 7.38011 12.41 7.72011 12 7.72011Z" />
<path d="M12 18.78C11.59 18.78 11.25 18.44 11.25 18.03V7.03003C11.25 6.62003 11.59 6.28003 12 6.28003C12.41 6.28003 12.75 6.62003 12.75 7.03003V18.03C12.75 18.44 12.41 18.78 12 18.78Z" />
<path d="M16.9702 7.27011C16.5602 7.27011 16.2202 6.93011 16.2202 6.52011V2.11011C16.2202 1.70011 16.5602 1.36011 16.9702 1.36011C17.3802 1.36011 17.7202 1.70011 17.7202 2.11011V6.52011C17.7202 6.94011 17.3802 7.27011 16.9702 7.27011Z" />
</svg>

<?xml version="1.0" encoding="UTF-8"?>
<svg width="24" height="24" viewBox="0 0 24 24" xmlns="http://www.w3.org/2000/svg">
 <path d="m15 22.75h-6c-5.43 0-7.75-2.32-7.75-7.75v-6c0-5.43 2.32-7.75 7.75-7.75h6c5.43 0 7.75 2.32 7.75 7.75v6c0 5.43-2.32 7.75-7.75 7.75zm-6-20c-4.61 0-6.25 1.64-6.25 6.25v6c0 4.61 1.64 6.25 6.25 6.25h6c4.61 0 6.25-1.64 6.25-6.25v-6c0-4.61-1.64-6.25-6.25-6.25h-6z"/>
 <path d="m21.48 17.86h-18.96c-0.41 0-0.75-0.34-0.75-0.75s0.34-0.75 0.75-0.75h18.96c0.41 0 0.75 0.34 0.75 0.75s-0.33 0.75-0.75 0.75z"/>
 <path d="m21.48 7.8601h-18.96c-0.41 0-0.75-0.34-0.75-0.75s0.33-0.75 0.75-0.75h18.96c0.41 0 0.75 0.34 0.75 0.75s-0.33 0.75-0.75 0.75z"/>
 <path d="m6.9702 22.21c-0.41 0-0.75-0.34-0.75-0.75v-4.35c0-0.41 0.34-0.75 0.75-0.75s0.75 0.34 0.75 0.75v4.35c0 0.42-0.34 0.75-0.75 0.75z"/>
 <path d="m12 22.72c-0.41 0-0.75-0.34-0.75-0.75v-4.86c0-0.41 0.34-0.75 0.75-0.75s0.75 0.34 0.75 0.75v4.86c0 0.41-0.34 0.75-0.75 0.75z"/>
 <path d="m16.97 22.27c-0.41 0-0.75-0.34-0.75-0.75v-4.41c0-0.41 0.34-0.75 0.75-0.75s0.75 0.34 0.75 0.75v4.41c0 0.42-0.34 0.75-0.75 0.75z"/>
 <path d="m6.9702 7.2101c-0.41 0-0.75-0.34-0.75-0.75v-4.35c0-0.41 0.34-0.75 0.75-0.75s0.75 0.34 0.75 0.75v4.35c0 0.42-0.34 0.75-0.75 0.75z"/>
 <path d="m12 7.7201c-0.41 0-0.75-0.34-0.75-0.75v-4.86c0-0.41 0.34-0.75 0.75-0.75s0.75 0.34 0.75 0.75v4.86c0 0.41-0.34 0.75-0.75 0.75z"/>
 <path d="m12 18.78c-0.41 0-0.75-0.34-0.75-0.75v-11c0-0.41 0.34-0.75 0.75-0.75s0.75 0.34 0.75 0.75v11c0 0.41-0.34 0.75-0.75 0.75z"/>
 <path d="m16.97 7.2701c-0.41 0-0.75-0.34-0.75-0.75v-4.41c0-0.41 0.34-0.75 0.75-0.75s0.75 0.34 0.75 0.75v4.41c0 0.42-0.34 0.75-0.75 0.75z"/>
</svg>
